epam-assets/icon-sources/18/navigation-structure.svg

<svg width="18" height="18" viewBox="0 0 18 18" fill="none" xmlns="http://www.w3.org/2000/svg">
<g id="18/navigation-structure">
<path id="icon" d="M11.25 2.25H6.75V6.75H8.25V8.25H3.75V11.25H2.25V15.75H6.75V11.25H5.25V9.75H12.75V11.25H11.25V15.75H15.75V11.25H14.25V8.25H9.75V6.75H11.25V2.25Z" fill="#6C6F80"/>
</g>
</svg>

<svg xmlns="http://www.w3.org/2000/svg" width="18" height="18" fill="none" viewBox="0 0 18 18">
  <path fill="#6C6F80" d="M11.25 2.25h-4.5v4.5h1.5v1.5h-4.5v3h-1.5v4.5h4.5v-4.5h-1.5v-1.5h7.5v1.5h-1.5v4.5h4.5v-4.5h-1.5v-3h-4.5v-1.5h1.5v-4.5Z"/>
</svg>
